fs/text_bullet_list_rotate_90_24_filled.svg

<svg viewBox="0 0 24 24" fill="none" xmlns="http://www.w3.org/2000/svg" height="1em" width="1em">
  <path d="M7.49883 3.49942C7.49883 4.32752 6.82752 4.99883 5.99942 4.99883C5.17131 4.99883 4.5 4.32752 4.5 3.49942C4.5 2.67131 5.17131 2 5.99942 2C6.82752 2 7.49883 2.67131 7.49883 3.49942ZM6.99942 7.50034L6.99941 21.0035C6.99941 21.5558 6.5517 22.0035 5.99942 22.0035C5.48658 22.0035 5.06391 21.6174 5.00614 21.1201L4.99942 21.0035L4.99942 7.50034C4.99942 6.94805 5.44713 6.50034 5.99942 6.50034C6.51225 6.50034 6.93492 6.88638 6.99269 7.38372L6.99942 7.50034ZM13.4988 3.49942C13.4988 4.32752 12.8275 4.99883 11.9994 4.99883C11.1713 4.99883 10.5 4.32752 10.5 3.49942C10.5 2.67131 11.1713 2 11.9994 2C12.8275 2 13.4988 2.67131 13.4988 3.49942ZM12.9994 7.50034L12.9994 21.0035C12.9994 21.5558 12.5517 22.0035 11.9994 22.0035C11.4866 22.0035 11.0639 21.6174 11.0061 21.1201L10.9994 21.0035L10.9994 7.50034C10.9994 6.94805 11.4471 6.50034 11.9994 6.50034C12.5123 6.50034 12.9349 6.88638 12.9927 7.38372L12.9994 7.50034ZM19.4916 3.49942C19.4916 4.32752 18.8203 4.99883 17.9922 4.99883C17.1641 4.99883 16.4928 4.32752 16.4928 3.49942C16.4928 2.67131 17.1641 2 17.9922 2C18.8203 2 19.4916 2.67131 19.4916 3.49942ZM18.9986 7.50034L18.9986 21.0035C18.9986 21.5558 18.5509 22.0035 17.9986 22.0035C17.4858 22.0035 17.0631 21.6174 17.0053 21.1201L16.9986 21.0035L16.9986 7.50034C16.9986 6.94805 17.4463 6.50034 17.9986 6.50034C18.5114 6.50034 18.9341 6.88638 18.9919 7.38372L18.9986 7.50034Z" fill="#212121"/>
</svg>

<svg viewBox="0 0 24 24" fill="none" xmlns="http://www.w3.org/2000/svg" height="1em" width="1em">
  <path d="M7.499 3.5a1.5 1.5 0 1 1-2.999 0 1.5 1.5 0 0 1 2.999 0Zm-.5 4v13.503a1 1 0 0 1-1.993.117L5 21.003V7.5a1 1 0 0 1 1.994-.116L7 7.5Zm6.5-4a1.5 1.5 0 1 1-2.999 0 1.5 1.5 0 0 1 2.999 0Zm-.5 4v13.503a1 1 0 0 1-1.993.117L11 21.003V7.5a1 1 0 0 1 1.994-.116L13 7.5Zm6.493-4a1.5 1.5 0 1 1-3 0 1.5 1.5 0 0 1 3 0Zm-.493 4v13.503a1 1 0 0 1-1.994.117L17 21.003V7.5a1 1 0 0 1 1.993-.116L19 7.5Z" fill="#212121"/>
</svg>
